X:2937
T:Jacksons Hornpipe. GHW.063
O:england
M:2/4
L:1/8
Q:360
S:George H.Watson,MS,Swanton Abbott,Norfolk,1850-1880
R:Hornpipe
A:Norfolk
K:G
(BA)|G2 (GA) BGBd|e2 (ed) (ef)ge|dBge d{B/}c{A/}B{G/}A|E2 (A2A2) BA|
G2 (GA) BGBd|e2 (ed) efge|dBge d{B/}c{A/}B{G/}A|d2 G2G2:|
|:(3(def)|(gd)Bd (gd)Bd)|efge d{B/}c{A/}B{G/}A|cAce dcBA|E2 (A2A2) (3(d
ef)|
(gd)Bd (gd)Bd)|efge dcBA|(cA).c.e d{B/}c{A/}B{G/}A|D2 G2G2:|


